src/actions/24/copy-coordinates.svg

<svg xmlns="http://www.w3.org/2000/svg" viewBox="0 0 24 24">
  <defs id="defs3051">
    <style type="text/css" id="current-color-scheme">
      .ColorScheme-Text {
        color:#363636;
      }
      </style>
  </defs><g transform="translate(1,1)">
 <path 
     style="fill:currentColor;fill-opacity:1;stroke:none" 
	 d="M 7 3 L 7 14 L 7 14.208984 L 1.921875 19.289062 C 1.921875 19.289062 2.6015381 19.99939 2.6113281 20 C 2.6113281 20 6.6314125 15.991631 7.6328125 14.988281 L 12 15 L 12 18 L 14 18 L 14 20 L 17 20 L 18 20 L 20 18 L 20 17 L 20 12 L 19 12 L 19 10 L 12 10 L 12 14 L 8 14 L 8 3 L 7 3 z M 13 11 L 18 11 L 18 12 L 14 12 L 14 17 L 13 17 L 13 11 z M 15 13 L 19 13 L 19 17 L 17 17 L 17 19 L 15 19 L 15 13 z "
	 class="ColorScheme-Text"
     />
</g></svg>

<svg xmlns="http://www.w3.org/2000/svg" viewBox="0 0 24 24">
    <path d="M7 3v11.209l-5.078 5.08s.68.71.69.711c0 0 4.02-4.008 5.02-5.012L12 15v3h2v2h4l2-2v-6h-1v-2h-7v4H8V3H7zm6 8h5v1h-4v5h-1v-6zm2 2h4v4h-2v2h-2v-6z" style="fill:currentColor;fill-opacity:1;stroke:none;color:#050505;opacity:.7" transform="translate(1 1)"/>
</svg>
